svgs/sharp-light/layer-plus.svg

<svg xmlns="http://www.w3.org/2000/svg" viewBox="0 0 576 512"><!--! Font Awesome Pro 6.6.0 by @fontawesome - https://fontawesome.com License - https://fontawesome.com/license (Commercial License) Copyright 2024 Fonticons, Inc. --><path d="M480 24l0 40 40 0 16 0 0 32-16 0-40 0 0 40 0 16-32 0 0-16 0-40-40 0-16 0 0-32 16 0 40 0 0-40 0-16 32 0 0 16zM78.8 256L288 349l209.2-93L288 163 78.8 256zM288 128L536.6 238.5 576 256l-39.4 17.5L288 384 39.4 273.5 0 256l39.4-17.5L288 128zM104.6 337.5L144 355 78.8 384 288 477l209.2-93L432 355l39.4-17.5 65.2 29L576 384l-39.4 17.5L288 512 39.4 401.5 0 384l39.4-17.5 65.2-29z"/></svg>

<svg xmlns="http://www.w3.org/2000/svg" viewBox="0 0 576 512"><!--! Font Awesome Pro 6.4.0 by @fontawesome - https://fontawesome.com License - https://fontawesome.com/license (Commercial License) Copyright 2023 Fonticons, Inc. --><path d="M480 24V64h40 16V96H520 480v40 16H448V136 96H408 392V64h16 40V24 8h32V24zM78.8 256L288 349l209.2-93L288 163 78.8 256zM288 128L536.6 238.5 576 256l-39.4 17.5L288 384 39.4 273.5 0 256l39.4-17.5L288 128zM104.6 337.5L144 355 78.8 384 288 477l209.2-93L432 355l39.4-17.5 65.2 29L576 384l-39.4 17.5L288 512 39.4 401.5 0 384l39.4-17.5 65.2-29z"/></svg>
